X:1 % 7
T:Dreifacher Fuereinander
C:traditionell
A:Bad Aussee
R:Jodler
B:"Pfeiermusik aus dem Salzkammergut", zus. A.Ruttner durch V.Derschmidt revidierte Ausgabe, Verlag E. Friedhuber, Wels, 2000
N:dort Nr.:37 mit der Angabe: Aufzeichnung vom Oberbergmeister Leopold Khals
Z:abc transcripton Simon Wascher
M:3/4
L:1/8
K:G 
V:1
g2B2(Bg) | f2A2A2 | F2A2(af) | g2B2B2 |\
g2B2(Bg) | f2A2A2 | F2A2(af) | G4z2 :| 
V:2
d2(gbd'b) | c'2(fa)d2 | c2(fa)(dd') | d'2(bd')g2 |\
d2(gbd'b) | c'2(fa)d2 | c'2(fa)(dd') | b4z2 :| 
V:3
B2g2d2 | A2f2d2 | A2f2dA | B2g2d2 |\
B2g2d2 | A2f2d2 | A2f2(dA) | B4z2 :|
